ix/size_twotone.svg

<svg viewBox="0 0 24 24" fill="none" xmlns="http://www.w3.org/2000/svg" height="1em" width="1em">
  <path d="M16.9707 12.25V16.75C16.9707 20.5 15.4707 22 11.7207 22H7.2207C3.4707 22 1.9707 20.5 1.9707 16.75V12.25C1.9707 8.5 3.4707 7 7.2207 7H11.7207C15.4707 7 16.9707 8.5 16.9707 12.25Z" stroke="#292D32" stroke-width="1.5" stroke-linecap="round" stroke-linejoin="round"/>
  <path opacity="0.4" d="M21.9707 5.85V9.15C21.9707 11.9 20.8707 13 18.1207 13H16.9707V12.25C16.9707 8.5 15.4707 7 11.7207 7H10.9707V5.85C10.9707 3.1 12.0707 2 14.8207 2H18.1207C20.8707 2 21.9707 3.1 21.9707 5.85Z" stroke="#292D32" stroke-width="1.5" stroke-linecap="round" stroke-linejoin="round"/>
</svg>

<svg viewBox="0 0 24 24" fill="none" xmlns="http://www.w3.org/2000/svg" height="1em" width="1em">
  <path d="M16.97 12.25v4.5c0 3.75-1.5 5.25-5.25 5.25h-4.5c-3.75 0-5.25-1.5-5.25-5.25v-4.5C1.97 8.5 3.47 7 7.22 7h4.5c3.75 0 5.25 1.5 5.25 5.25Z" stroke="#292D32" stroke-width="1.5" stroke-linecap="round" stroke-linejoin="round"/>
  <path opacity=".4" d="M21.97 5.85v3.3c0 2.75-1.1 3.85-3.85 3.85h-1.15v-.75c0-3.75-1.5-5.25-5.25-5.25h-.75V5.85c0-2.75 1.1-3.85 3.85-3.85h3.3c2.75 0 3.85 1.1 3.85 3.85Z" stroke="#292D32" stroke-width="1.5" stroke-linecap="round" stroke-linejoin="round"/>
</svg>
